;FLAVOR:Marlin
;TIME:2121
;Filament used: 1.1882m
;Layer height: 0.2
;MINX:82.198
;MINY:95.222
;MINZ:0.2
;MAXX:151.83
;MAXY:139.778
;MAXZ:30
;TARGET_MACHINE.NAME:Creality Ender-3
;Generated with Cura_SteamEngine 5.6.0
M140 S50
M105
M190 S50
M104 S200
M105
M109 S200
M82 ;absolute extrusion mode
; Ender 3 Custom Start G-code
G92 E0 ; Reset Extruder
G28 ; Home all axes
G1 Z2.0 F3000 ; Move Z Axis up little to prevent scratching of Heat Bed
G1 X0.1 Y20 Z0.3 F5000.0 ; Move to start position
G1 X0.1 Y200.0 Z0.3 F1500.0 E15 ; Draw the first line
G1 X0.4 Y200.0 Z0.3 F5000.0 ; Move to side a little
G1 X0.4 Y20 Z0.3 F1500.0 E30 ; Draw the second line
G92 E0 ; Reset Extruder
G1 Z2.0 F3000 ; Move Z Axis up little to prevent scratching of Heat Bed
G1 X5 Y20 Z0.3 F5000.0 ; Move over to prevent blob squish
G92 E0
G92 E0
G1 F2700 E-5
;LAYER_COUNT:150
;LAYER:0
M107
G0 F6000 X85.371 Y103.956 Z0.2
;TYPE:SKIRT
G1 F2700 E0
G1 F1200 X99.36 Y95.881 E0.53723
G1 X101.308 Y95.321 E0.60464
G1 X103.607 Y95.222 E0.68118
G1 X105.63 Y95.877 E0.7519
G1 X119.705 Y104.001 E1.29242
G1 X121.088 Y105.343 E1.35652
G1 X122.339 Y107.338 E1.43484
G1 X122.798 Y109.467 E1.50728
G1 X122.798 Y125.602 E2.04393
G1 X122.313 Y127.532 E2.11012
G1 X121.175 Y129.649 E2.19006
G1 X119.625 Y131.044 E2.25942
G1 X105.636 Y139.119 E2.79664
G1 X103.688 Y139.679 E2.86406
G1 X101.389 Y139.778 E2.9406
G1 X99.366 Y139.123 E3.01132
G1 X85.291 Y130.999 E3.55184
G1 X83.908 Y129.657 E3.61594
G1 X82.657 Y127.662 E3.69426
G1 X82.198 Y125.533 E3.76669
G1 X82.198 Y109.398 E4.30335
G1 X82.683 Y107.468 E4.36953
G1 X83.821 Y105.351 E4.44947
G1 X85.371 Y103.956 E4.51883
G0 F6000 X85.609 Y104.28
G1 F1200 X99.518 Y96.251 E5.05299
G1 X101.369 Y95.719 E5.11705
G1 X103.552 Y95.625 E5.18972
G1 X105.47 Y96.246 E5.25678
G1 X119.46 Y104.321 E5.79403
G1 X120.776 Y105.598 E5.85502
G1 X121.963 Y107.491 E5.92934
G1 X122.398 Y109.509 E5.998
G1 X122.398 Y125.553 E6.53162
G1 X121.937 Y127.388 E6.59455
G1 X120.857 Y129.397 E6.67042
G1 X119.387 Y130.72 E6.73619
G1 X105.478 Y138.749 E7.27035
G1 X103.627 Y139.281 E7.33441
G1 X101.444 Y139.375 E7.40708
G1 X99.526 Y138.754 E7.47414
G1 X85.536 Y130.679 E8.0114
G1 X84.22 Y129.402 E8.07239
G1 X83.033 Y127.509 E8.1467
G1 X82.598 Y125.491 E8.21536
G1 X82.598 Y109.447 E8.74899
G1 X83.059 Y107.612 E8.81192
G1 X84.139 Y105.603 E8.88778
G1 X85.609 Y104.28 E8.95356
G0 F6000 X85.847 Y104.604
G1 F1200 X99.676 Y96.621 E9.48465
G1 X101.43 Y96.117 E9.54535
G1 X103.497 Y96.028 E9.61416
G1 X105.31 Y96.615 E9.67754
G1 X119.215 Y104.641 E10.21154
G1 X120.464 Y105.853 E10.26942
G1 X121.587 Y107.644 E10.33973
G1 X121.998 Y109.551 E10.40461
G1 X121.998 Y125.504 E10.93521
G1 X121.561 Y127.244 E10.99488
G1 X120.539 Y129.145 E11.06667
G1 X119.149 Y130.396 E11.12887
G1 X105.32 Y138.379 E11.65996
G1 X103.566 Y138.883 E11.72066
G1 X101.499 Y138.972 E11.78947
G1 X99.686 Y138.385 E11.85285
G1 X85.781 Y130.359 E12.38685
G1 X84.532 Y129.147 E12.44473
G1 X83.409 Y127.356 E12.51504
G1 X82.998 Y125.449 E12.57992
G1 X82.998 Y109.496 E13.11052
G1 X83.435 Y107.756 E13.17019
G1 X84.457 Y105.855 E13.24198
G1 X85.847 Y104.604 E13.30418
G0 F6000 X86.085 Y104.928
G1 F1200 X99.834 Y96.991 E13.8322
G1 X101.491 Y96.515 E13.88954
G1 X103.442 Y96.431 E13.95449
G1 X105.15 Y96.984 E14.0142
G1 X118.97 Y104.961 E14.54493
G1 X120.15 Y106.106 E14.59962
G1 X121.211 Y107.798 E14.66604
G1 X121.598 Y109.593 E14.72712
G1 X121.598 Y125.454 E15.25466
G1 X121.184 Y127.101 E15.31114
G1 X120.221 Y128.893 E15.3788
G1 X118.911 Y130.072 E15.43742
G1 X105.162 Y138.009 E15.96544
G1 X103.505 Y138.485 E16.02278
G1 X101.554 Y138.569 E16.08773
G1 X99.846 Y138.016 E16.14745
G1 X86.026 Y130.039 E16.67818
G1 X84.846 Y128.894 E16.73286
G1 X83.785 Y127.202 E16.79929
G1 X83.398 Y125.407 E16.86036
G1 X83.398 Y109.546 E17.3879
G1 X83.812 Y107.899 E17.44439
G1 X84.775 Y106.107 E17.51205
G1 X86.085 Y104.928 E17.57067
G0 F6000 X86.323 Y105.252
G1 F1200 X99.991 Y97.362 E18.09557
G1 X101.553 Y96.913 E18.14963
G1 X103.387 Y96.834 E18.21069
G1 X104.99 Y97.353 E18.26673
G1 X118.725 Y105.281 E18.79419
G1 X119.838 Y106.361 E18.84578
G1 X120.835 Y107.951 E18.9082
G1 X121.198 Y109.635 E18.96549
G1 X121.198 Y125.405 E19.49
G1 X120.808 Y126.957 E19.54323
G1 X119.903 Y128.641 E19.60682
G1 X118.673 Y129.748 E19.66185
G1 X105.005 Y137.638 E20.18676
G1 X103.443 Y138.087 E20.24082
G1 X101.609 Y138.166 E20.30187
G1 X100.006 Y137.647 E20.35791
G1 X86.271 Y129.719 E20.88538
G1 X85.158 Y128.639 E20.93696
G1 X84.161 Y127.049 E20.99938
G1 X83.798 Y125.365 E21.05668
G1 X83.798 Y109.595 E21.58119
G1 X84.188 Y108.043 E21.63442
G1 X85.093 Y106.359 E21.698
G1 X86.323 Y105.252 E21.75304
G0 F6000 X86.561 Y105.576
G1 F1200 X100.149 Y97.732 E22.27488
G1 X101.614 Y97.311 E22.32558
G1 X103.332 Y97.237 E22.38277
G1 X104.83 Y97.722 E22.43514
G1 X118.48 Y105.601 E22.95934
G1 X119.526 Y106.616 E23.00782
G1 X120.459 Y108.104 E23.06624
G1 X120.798 Y109.677 E23.11976
G1 X120.798 Y125.356 E23.64124
G1 X120.432 Y126.813 E23.69121
G1 X119.585 Y128.389 E23.75071
G1 X118.435 Y129.424 E23.80217
G1 X104.847 Y137.268 E24.32401
G1 X103.382 Y137.689 E24.37471
G1 X101.664 Y137.763 E24.4319
G1 X100.166 Y137.278 E24.48427
G1 X86.516 Y129.399 E25.00848
G1 X85.47 Y128.384 E25.05695
G1 X84.537 Y126.896 E25.11537
G1 X84.198 Y125.323 E25.16889
G1 X84.198 Y109.644 E25.69037
G1 X84.564 Y108.187 E25.74034
G1 X85.411 Y106.611 E25.79985
G1 X86.561 Y105.576 E25.85131
G0 F6000 X86.799 Y105.9
G1 F1200 X100.307 Y98.102 E26.37007
G1 X101.675 Y97.709 E26.41742
G1 X103.277 Y97.64 E26.47075
G1 X104.67 Y98.091 E26.51945
G1 X118.235 Y105.921 E27.04039
G1 X119.212 Y106.869 E27.08567
G1 X120.083 Y108.258 E27.1402
G1 X120.398 Y109.719 E27.18991
G1 X120.398 Y125.307 E27.70836
G1 X120.056 Y126.669 E27.75507
G1 X119.267 Y128.137 E27.8105
G1 X118.197 Y129.1 E27.85838
G1 X104.689 Y136.898 E28.37715
G1 X103.321 Y137.291 E28.42449
G1 X101.719 Y137.36 E28.47782
G1 X100.326 Y136.909 E28.52652
G1 X86.761 Y129.079 E29.04746
G1 X85.784 Y128.131 E29.09274
G1 X84.913 Y126.742 E29.14727
G1 X84.598 Y125.281 E29.19698
G1 X84.598 Y109.693 E29.71544
G1 X84.94 Y108.331 E29.76215
G1 X85.729 Y106.863 E29.81758
G1 X86.799 Y105.9 E29.86546
G0 F6000 X87.037 Y106.224
G1 F1200 X100.464 Y98.473 E30.38111
G1 X101.737 Y98.107 E30.42516
G1 X103.222 Y98.043 E30.4746
G1 X104.51 Y98.46 E30.51963
G1 X117.99 Y106.241 E31.03731
G1 X118.9 Y107.124 E31.07948
G1 X119.707 Y108.411 E31.13001
G1 X119.998 Y109.761 E31.17594
G1 X119.998 Y125.257 E31.69134
G1 X119.679 Y126.526 E31.73486
G1 X118.949 Y127.885 E31.78617
G1 X117.959 Y128.776 E31.83047
G1 X104.532 Y136.527 E32.34612
G1 X103.259 Y136.893 E32.39017
G1 X101.774 Y136.957 E32.43961
G1 X100.486 Y136.54 E32.48464
G1 X87.006 Y128.759 E33.00232
G1 X86.096 Y127.876 E33.04449
G1 X85.289 Y126.589 E33.09502
G1 X84.998 Y125.239 E33.14095
G1 X84.998 Y109.743 E33.65635
G1 X85.317 Y108.474 E33.69987
G1 X86.047 Y107.115 E33.75118
G1 X87.037 Y106.224 E33.79548
G0 F6000 X87.275 Y106.548
G1 F1200 X100.622 Y98.843 E34.30806
G1 X101.798 Y98.505 E34.34876
G1 X103.167 Y98.446 E34.39433
G1 X104.35 Y98.829 E34.43569
G1 X117.745 Y106.561 E34.9501
G1 X118.588 Y107.379 E34.98917
G1 X119.331 Y108.564 E35.03569
G1 X119.598 Y109.803 E35.07785
G1 X119.598 Y125.208 E35.59022
G1 X119.303 Y126.382 E35.63048
G1 X118.631 Y127.633 E35.67771
G1 X117.721 Y128.452 E35.71843
G1 X104.374 Y136.157 E36.23102
G1 X103.198 Y136.495 E36.27171
G1 X101.829 Y136.554 E36.31729
G1 X100.646 Y136.171 E36.35865
G1 X87.251 Y128.439 E36.87306
G1 X86.408 Y127.621 E36.91213
G1 X85.665 Y126.436 E36.95865
G1 X85.398 Y125.197 E37.00081
G1 X85.398 Y109.792 E37.51318
G1 X85.693 Y108.618 E37.55344
G1 X86.365 Y107.367 E37.60067
G1 X87.275 Y106.548 E37.64139
G0 F6000 X87.513 Y106.872
G1 F1200 X100.78 Y99.213 E38.1509
G1 X101.859 Y98.903 E38.18824
G1 X103.112 Y98.849 E38.22996
G1 X104.19 Y99.198 E38.26764
G1 X117.5 Y106.881 E38.7788
G1 X118.274 Y107.632 E38.81467
G1 X118.955 Y108.718 E38.8573
G1 X119.198 Y109.845 E38.89565
G1 X119.198 Y125.159 E39.40499
G1 X118.927 Y126.238 E39.44199
G1 X118.313 Y127.381 E39.48515
G1 X117.483 Y128.128 E39.52229
G1 X104.216 Y135.787 E40.0318
G1 X103.137 Y136.097 E40.06914
G1 X101.884 Y136.151 E40.11085
G1 X100.806 Y135.802 E40.14854
G1 X87.496 Y128.119 E40.65969
G1 X86.722 Y127.368 E40.69556
G1 X86.041 Y126.282 E40.7382
G1 X85.798 Y125.155 E40.77654
G1 X85.798 Y109.841 E41.28589
G1 X86.069 Y108.762 E41.32289
G1 X86.683 Y107.619 E41.36605
G1 X87.513 Y106.872 E41.40319
G0 F6000 X87.748 Y107.198
G1 F1200 X100.938 Y99.583 E41.90975
G1 X101.92 Y99.301 E41.94373
G1 X103.057 Y99.252 E41.98158
G1 X104.03 Y99.567 E42.0156
G1 X117.255 Y107.201 E42.52349
G1 X117.962 Y107.887 E42.55625
G1 X118.579 Y108.871 E42.59488
G1 X118.798 Y109.887 E42.62945
G1 X118.798 Y125.11 E43.13577
G1 X118.551 Y126.094 E43.16951
G1 X117.994 Y127.131 E43.20866
G1 X117.248 Y127.802 E43.24204
G1 X104.058 Y135.417 E43.7486
G1 X103.076 Y135.699 E43.78258
G1 X101.939 Y135.748 E43.82043
G1 X100.966 Y135.433 E43.85445
G1 X87.741 Y127.799 E44.36234
G1 X87.034 Y127.113 E44.3951
G1 X86.417 Y126.129 E44.43373
G1 X86.198 Y125.113 E44.4683
G1 X86.198 Y109.89 E44.97462
G1 X86.445 Y108.906 E45.00836
G1 X87.002 Y107.869 E45.04751
G1 X87.748 Y107.198 E45.08089
G0 F6000 X87.983 Y107.524
G1 F1200 X101.095 Y99.954 E45.58446
G1 X101.982 Y99.699 E45.61515
G1 X103.002 Y99.655 E45.64911
G1 X103.87 Y99.936 E45.67945
G1 X117.01 Y107.521 E46.18408
G1 X117.65 Y108.142 E46.21374
G1 X118.203 Y109.024 E46.24836
G1 X118.398 Y109.929 E46.27916
G1 X118.398 Y125.061 E46.78245
G1 X118.175 Y125.95 E46.81293
G1 X117.675 Y126.881 E46.84808
G1 X117.013 Y127.476 E46.87769
G1 X103.901 Y135.046 E47.38125
G1 X103.014 Y135.301 E47.41195
G1 X101.994 Y135.345 E47.44591
G1 X101.126 Y135.064 E47.47625
G1 X87.986 Y127.479 E47.98088
G1 X87.346 Y126.858 E48.01054
G1 X86.793 Y125.976 E48.04516
G1 X86.598 Y125.071 E48.07595
G1 X86.598 Y109.939 E48.57925
G1 X86.821 Y109.05 E48.60973
G1 X87.321 Y108.119 E48.64488
G1 X87.983 Y107.524 E48.67448
G0 F6000 X88.221 Y107.848
G1 F1200 X101.253 Y100.324 E49.17498
G1 X102.043 Y100.097 E49.20232
G1 X102.947 Y100.058 E49.23242
G1 X103.71 Y100.305 E49.25909
G1 X116.765 Y107.841 E49.76045
G1 X117.336 Y108.395 E49.78692
G1 X117.827 Y109.178 E49.81765
G1 X117.998 Y109.971 E49.84464
G1 X117.998 Y125.012 E50.3449
G1 X117.799 Y125.806 E50.37213
G1 X117.357 Y126.629 E50.4032
G1 X116.775 Y127.152 E50.42922
G1 X103.743 Y134.676 E50.92972
G1 X102.953 Y134.903 E50.95706
G1 X102.049 Y134.942 E50.98716
G1 X101.286 Y134.695 E51.01383
G1 X88.231 Y127.159 E51.51519
G1 X87.66 Y126.605 E51.54165
G1 X87.169 Y125.822 E51.57239
G1 X86.998 Y125.029 E51.59938
G1 X86.998 Y109.988 E52.09964
G1 X87.197 Y109.194 E52.12687
G1 X87.639 Y108.371 E52.15794
G1 X88.221 Y107.848 E52.18396
G0 F6000 X88.459 Y108.172
G1 F1200 X101.411 Y100.694 E52.68139
G1 X102.104 Y100.495 E52.70537
G1 X102.892 Y100.461 E52.73161
G1 X103.55 Y100.674 E52.75461
G1 X116.52 Y108.161 E53.25271
G1 X117.024 Y108.65 E53.27607
G1 X117.451 Y109.331 E53.3028
G1 X117.598 Y110.013 E53.326
G1 X117.598 Y124.963 E53.82324
G1 X117.423 Y125.662 E53.84721
G1 X117.039 Y126.377 E53.8742
G1 X116.537 Y126.828 E53.89665
G1 X103.585 Y134.306 E54.39408
G1 X102.892 Y134.505 E54.41806
G1 X102.104 Y134.539 E54.44429
G1 X101.446 Y134.326 E54.4673
G1 X88.476 Y126.839 E54.9654
G1 X87.972 Y126.35 E54.98875
G1 X87.545 Y125.669 E55.01549
G1 X87.398 Y124.987 E55.03869
G1 X87.398 Y110.037 E55.53593
G1 X87.573 Y109.338 E55.5599
G1 X87.957 Y108.623 E55.58689
G1 X88.459 Y108.172 E55.60934
G0 F6000 X88.697 Y108.496
G1 F1200 X101.568 Y101.065 E56.10365
G1 X102.166 Y100.893 E56.12435
G1 X102.837 Y100.864 E56.14669
G1 X103.39 Y101.043 E56.16602
G1 X116.275 Y108.481 E56.66085
G1 X116.712 Y108.905 E56.6811
G1 X117.075 Y109.484 E56.70383
G1 X117.198 Y110.055 E56.72326
G1 X117.198 Y124.914 E57.21747
G1 X117.047 Y125.518 E57.23818
G1 X116.721 Y126.125 E57.2611
G1 X116.299 Y126.504 E57.27996
G1 X103.428 Y133.935 E57.77428
G1 X102.83 Y134.107 E57.79497
G1 X102.159 Y134.136 E57.81731
G1 X101.606 Y133.957 E57.83665
G1 X88.721 Y126.519 E58.33148
G1 X88.284 Y126.095 E58.35173
G1 X87.921 Y125.516 E58.37446
G1 X87.798 Y124.945 E58.39389
G1 X87.798 Y110.086 E58.8881
G1 X87.949 Y109.482 E58.90881
G1 X88.275 Y108.875 E58.93173
G1 X88.697 Y108.496 E58.95059
G0 F6000 X88.935 Y108.82
G1 F1200 X101.726 Y101.435 E59.44184
G1 X102.227 Y101.291 E59.45918
G1 X102.782 Y101.267 E59.47765
G1 X103.23 Y101.412 E59.49331
G1 X116.03 Y108.801 E59.98489
G1 X116.4 Y109.16 E60.00203
G1 X116.699 Y109.637 E60.02076
G1 X116.798 Y110.097 E60.03641
G1 X116.798 Y124.865 E60.52759
G1 X116.671 Y125.374 E60.54504
G1 X116.403 Y125.873 E60.56388
G1 X116.061 Y126.18 E60.57917
G1 X103.27 Y133.565 E61.07041
G1 X102.769 Y133.709 E61.08775
G1 X102.214 Y133.733 E61.10623
G1 X101.766 Y133.588 E61.12189
G1 X88.966 Y126.199 E61.61346
G1 X88.596 Y125.84 E61.63061
G1 X88.297 Y125.363 E61.64933
G1 X88.198 Y124.903 E61.66498
G1 X88.198 Y110.135 E62.15617
G1 X88.325 Y109.626 E62.17362
G1 X88.593 Y109.127 E62.19246
G1 X88.935 Y108.82 E62.20774
G0 F6000 X89.173 Y109.144
G1 F1200 X101.884 Y101.805 E62.69592
G1 X102.288 Y101.689 E62.7099
G1 X102.727 Y101.67 E62.72451
G1 X103.07 Y101.781 E62.7365
G1 X115.785 Y109.121 E63.22481
G1 X116.088 Y109.415 E63.23885
G1 X116.323 Y109.79 E63.25357
G1 X116.398 Y110.139 E63.26545
G1 X116.398 Y124.816 E63.75361
G1 X116.295 Y125.23 E63.7678
G1 X116.085 Y125.621 E63.78256
G1 X115.823 Y125.856 E63.79426
G1 X103.112 Y133.195 E64.28244
G1 X102.708 Y133.311 E64.29642
G1 X102.269 Y133.33 E64.31104
G1 X101.926 Y133.219 E64.32303
G1 X89.211 Y125.879 E64.81134
G1 X88.908 Y125.585 E64.82538
G1 X88.673 Y125.21 E64.8401
G1 X88.598 Y124.861 E64.85197
G1 X88.598 Y110.184 E65.34013
G1 X88.701 Y109.77 E65.35432
G1 X88.911 Y109.379 E65.36908
G1 X89.173 Y109.144 E65.38079
G0 F6000 X89.373 Y109.49
G1 F1200 X102.041 Y102.176 E65.86731
G1 X102.35 Y102.087 E65.878
G1 X102.674 Y102.073 E65.88879
G1 X102.87 Y102.127 E65.89555
G1 X115.54 Y109.441 E66.38213
G1 X115.774 Y109.668 E66.39298
G1 X115.948 Y109.945 E66.40386
G1 X115.998 Y110.139 E66.41052
G1 X115.998 Y124.767 E66.89705
G1 X115.919 Y125.083 E66.90788
G1 X115.765 Y125.371 E66.91874
G1 X115.623 Y125.51 E66.92535
G1 X102.955 Y132.824 E67.41188
G1 X102.646 Y132.913 E67.42257
G1 X102.322 Y132.927 E67.43336
G1 X102.126 Y132.873 E67.44012
G1 X89.456 Y125.559 E67.9267
G1 X89.222 Y125.332 E67.93754
G1 X89.048 Y125.055 E67.94842
G1 X88.998 Y124.861 E67.95509
G1 X88.998 Y110.233 E68.44162
G1 X89.077 Y109.917 E68.45245
G1 X89.231 Y109.629 E68.46331
G1 X89.373 Y109.49 E68.46992
G0 F6000 X89.845 Y110.14
G1 F1200 X102.398 Y102.893 E68.95202
G1 X102.544 Y102.862 E68.95698
G1 X115.098 Y110.109 E69.43911
G1 X115.198 Y110.221 E69.4441
G1 X115.198 Y124.718 E69.92627
G1 X115.151 Y124.86 E69.93125
G1 X102.598 Y132.107 E70.41334
G1 X102.452 Y132.138 E70.41831
G1 X89.898 Y124.891 E70.90043
G1 X89.798 Y124.779 E70.90543
G1 X89.798 Y110.282 E71.3876
G1 X89.845 Y110.14 E71.39257
G0 F6000 X89.573 Y109.836
G1 F1200 X102.198 Y102.547 E71.87744
G1 X102.461 Y102.471 E71.88655
G1 X102.67 Y102.473 E71.8935
G1 X115.298 Y109.763 E72.37847
G1 X115.496 Y109.955 E72.38764
G1 X115.598 Y110.139 E72.39464
G1 X115.598 Y124.718 E72.87954
G1 X115.531 Y124.986 E72.88873
G1 X115.423 Y125.164 E72.89565
G1 X102.798 Y132.453 E73.38052
G1 X102.535 Y132.529 E73.38963
G1 X102.326 Y132.527 E73.39658
G1 X89.698 Y125.237 E73.88155
G1 X89.5 Y125.045 E73.89072
G1 X89.398 Y124.861 E73.89772
G1 X89.398 Y110.282 E74.38262
G1 X89.465 Y110.014 E74.39181
G1 X89.573 Y109.836 E74.39873
G1 F2700 E69.39873
G0 F6000 X89.54 Y109.78
G0 X102.498 Y102.304
G0 X128.176 Y116.836
G1 F2700 E74.39873
G1 F1200 X128.604 Y114.285 E74.48477
G1 X129.507 Y112.011 E74.56615
G1 X131.001 Y109.798 E74.65495
G1 X132.893 Y108.026 E74.74117
G1 X135.1 Y106.715 E74.82655
G1 X137.489 Y105.925 E74.91024
G1 X140.004 Y105.663 E74.99434
G1 X142.585 Y105.955 E75.08073
G1 X145.002 Y106.76 E75.16547
G1 X147.179 Y108.073 E75.25002
G1 X149.059 Y109.879 E75.33673
G1 X150.507 Y112.033 E75.42305
G1 X151.412 Y114.309 E75.50452
G1 X151.83 Y116.884 E75.59129
