;FLAVOR:Marlin
;TIME:13191
;Filament used: 9.16009m
;Layer height: 0.2
;MINX:39.7
;MINY:54.939
;MINZ:0.2
;MAXX:195.3
;MAXY:178.992
;MAXZ:31
;TARGET_MACHINE.NAME:Creality Ender-3
;Generated with Cura_SteamEngine 5.6.0
M140 S50
M105
M190 S50
M104 S200
M105
M109 S200
M82 ;absolute extrusion mode
; Ender 3 Custom Start G-code
G92 E0 ; Reset Extruder
G28 ; Home all axes
G1 Z2.0 F3000 ; Move Z Axis up little to prevent scratching of Heat Bed
G1 X0.1 Y20 Z0.3 F5000.0 ; Move to start position
G1 X0.1 Y200.0 Z0.3 F1500.0 E15 ; Draw the first line
G1 X0.4 Y200.0 Z0.3 F5000.0 ; Move to side a little
G1 X0.4 Y20 Z0.3 F1500.0 E30 ; Draw the second line
G92 E0 ; Reset Extruder
G1 Z2.0 F3000 ; Move Z Axis up little to prevent scratching of Heat Bed
G1 X5 Y20 Z0.3 F5000.0 ; Move over to prevent blob squish
G92 E0
G92 E0
G1 F2700 E-5
;LAYER_COUNT:155
;LAYER:0
M107
G0 F6000 X50.873 Y63.673 Z0.2
;TYPE:SKIRT
G1 F2700 E0
G1 F1200 X64.862 Y55.598 E0.53723
G1 X66.81 Y55.038 E0.60464
G1 X69.109 Y54.939 E0.68118
G1 X71.132 Y55.594 E0.7519
G1 X85.207 Y63.718 E1.29242
G1 X86.59 Y65.06 E1.35652
G1 X87.841 Y67.055 E1.43484
G1 X88.3 Y69.184 E1.50728
G1 X88.3 Y85.319 E2.04393
G1 X87.815 Y87.249 E2.11012
G1 X86.677 Y89.366 E2.19006
G1 X85.127 Y90.761 E2.25942
G1 X80.306 Y93.546 E2.4446
G1 X188.353 Y93.517 E6.03825
G1 X190.249 Y93.983 E6.10319
G1 X192.277 Y95.036 E6.17919
G1 X193.736 Y96.597 E6.25026
G1 X194.943 Y98.62 E6.32861
G1 X195.225 Y100.338 E6.38652
G1 X195.3 Y153.97 E8.17033
G1 X194.834 Y155.866 E8.23526
G1 X193.781 Y157.894 E8.31127
G1 X192.22 Y159.353 E8.38233
G1 X190.197 Y160.56 E8.46068
G1 X188.479 Y160.842 E8.51859
G1 X66.454 Y160.912 E12.57716
G1 X66.987 Y161.714 E12.60919
G1 X67.914 Y164.064 E12.69321
G1 X68.332 Y166.579 E12.77801
G1 X68.165 Y169.205 E12.86552
G1 X67.484 Y171.633 E12.94939
G1 X66.276 Y173.899 E13.0348
G1 X64.605 Y175.859 E13.12047
G1 X62.532 Y177.407 E13.20652
G1 X60.244 Y178.454 E13.29021
G1 X57.727 Y178.992 E13.37581
G1 X55.195 Y178.989 E13.46003
G1 X52.684 Y178.425 E13.54563
G1 X50.367 Y177.341 E13.63071
G1 X48.261 Y175.727 E13.71896
G1 X46.654 Y173.81 E13.80216
G1 X45.466 Y171.515 E13.88811
G1 X44.815 Y169.156 E13.9695
G1 X44.674 Y166.538 E14.0567
G1 X45.093 Y164.04 E14.14095
G1 X46.063 Y161.624 E14.22754
G1 X46.556 Y160.895 E14.25681
G1 X44.751 Y160.451 E14.31863
G1 X42.723 Y159.398 E14.39464
G1 X41.264 Y157.837 E14.4657
G1 X40.057 Y155.814 E14.54405
G1 X39.775 Y154.096 E14.60196
G1 X39.7 Y100.464 E16.38577
G1 X40.166 Y98.568 E16.45071
G1 X41.219 Y96.54 E16.52671
G1 X42.78 Y95.081 E16.59777
G1 X44.803 Y93.874 E16.67613
G1 X46.521 Y93.592 E16.73403
G1 X55.724 Y93.563 E17.04013
G1 X50.793 Y90.716 E17.22951
G1 X49.41 Y89.374 E17.2936
G1 X48.159 Y87.379 E17.37192
G1 X47.7 Y85.25 E17.44436
G1 X47.7 Y69.115 E17.98101
G1 X48.185 Y67.185 E18.0472
G1 X49.323 Y65.068 E18.12714
G1 X50.873 Y63.673 E18.1965
G0 F6000 X51.111 Y63.997
G1 F1200 X65.02 Y55.968 E18.73066
G1 X66.871 Y55.436 E18.79471
G1 X69.054 Y55.342 E18.86739
G1 X70.972 Y55.963 E18.93444
G1 X84.962 Y64.038 E19.4717
G1 X86.278 Y65.315 E19.53269
G1 X87.465 Y67.208 E19.607
G1 X87.9 Y69.226 E19.67566
G1 X87.9 Y85.27 E20.20929
G1 X87.439 Y87.105 E20.27222
G1 X86.359 Y89.114 E20.34808
G1 X84.889 Y90.437 E20.41386
G1 X78.814 Y93.946 E20.6472
G1 X188.307 Y93.917 E24.28895
G1 X190.106 Y94.359 E24.35057
G1 X192.032 Y95.359 E24.42275
G1 X193.412 Y96.836 E24.48998
G1 X194.56 Y98.76 E24.56449
G1 X194.83 Y100.403 E24.61987
G1 X194.9 Y153.924 E26.39999
G1 X194.458 Y155.723 E26.46161
G1 X193.458 Y157.649 E26.53378
G1 X191.981 Y159.029 E26.60102
G1 X190.057 Y160.177 E26.67553
G1 X188.414 Y160.447 E26.73091
G1 X65.707 Y160.512 E30.81216
G1 X66.631 Y161.901 E30.86765
G1 X67.526 Y164.169 E30.94875
G1 X67.93 Y166.602 E31.03078
G1 X67.769 Y169.137 E31.11526
G1 X67.111 Y171.483 E31.1963
G1 X65.944 Y173.672 E31.27881
G1 X64.33 Y175.565 E31.36155
G1 X62.326 Y177.061 E31.44472
G1 X60.117 Y178.072 E31.52552
G1 X57.685 Y178.592 E31.60824
G1 X55.239 Y178.589 E31.6896
G1 X52.813 Y178.044 E31.7723
G1 X50.575 Y176.997 E31.85448
G1 X48.542 Y175.439 E31.93967
G1 X46.988 Y173.585 E32.02013
G1 X45.842 Y171.371 E32.10304
G1 X45.211 Y169.087 E32.18186
G1 X45.076 Y166.565 E32.26586
G1 X45.481 Y164.146 E32.34743
G1 X46.417 Y161.816 E32.43095
G1 X47.294 Y160.517 E32.48308
G1 X46.693 Y160.517 E32.50307
G1 X44.894 Y160.075 E32.56468
G1 X42.968 Y159.075 E32.63686
G1 X41.588 Y157.598 E32.70409
G1 X40.44 Y155.674 E32.77861
G1 X40.17 Y154.031 E32.83399
G1 X40.1 Y100.51 E34.61411
G1 X40.542 Y98.711 E34.67572
G1 X41.542 Y96.785 E34.7479
G1 X43.019 Y95.405 E34.81513
G1 X44.943 Y94.257 E34.88965
G1 X46.586 Y93.987 E34.94503
G1 X57.209 Y93.959 E35.29835
G1 X51.038 Y90.396 E35.53536
G1 X49.722 Y89.119 E35.59635
G1 X48.535 Y87.226 E35.67066
G1 X48.1 Y85.208 E35.73932
G1 X48.1 Y69.164 E36.27295
G1 X48.561 Y67.329 E36.33588
G1 X49.641 Y65.32 E36.41174
G1 X51.111 Y63.997 E36.47752
G0 F6000 X51.349 Y64.321
G1 F1200 X65.178 Y56.338 E37.00861
G1 X66.932 Y55.834 E37.06931
G1 X68.999 Y55.745 E37.13812
G1 X70.812 Y56.332 E37.2015
G1 X84.717 Y64.358 E37.7355
G1 X85.966 Y65.57 E37.79338
G1 X87.089 Y67.361 E37.86369
G1 X87.5 Y69.268 E37.92858
G1 X87.5 Y85.221 E38.45917
G1 X87.063 Y86.961 E38.51884
G1 X86.041 Y88.862 E38.59063
G1 X84.651 Y90.113 E38.65283
G1 X77.322 Y94.346 E38.93433
G1 X188.26 Y94.317 E42.62414
G1 X189.964 Y94.736 E42.68251
G1 X191.787 Y95.682 E42.75082
G1 X193.091 Y97.078 E42.81435
G1 X194.177 Y98.898 E42.88484
G1 X194.435 Y100.468 E42.93776
G1 X194.5 Y153.877 E44.71415
G1 X194.081 Y155.581 E44.77252
G1 X193.135 Y157.404 E44.84083
G1 X191.739 Y158.708 E44.90437
G1 X189.919 Y159.794 E44.97486
G1 X188.349 Y160.052 E45.02778
G1 X64.96 Y160.112 E49.13171
G1 X66.275 Y162.088 E49.21066
G1 X67.138 Y164.275 E49.28885
G1 X67.528 Y166.625 E49.36808
G1 X67.373 Y169.069 E49.44954
G1 X66.738 Y171.333 E49.52774
G1 X65.612 Y173.445 E49.60735
G1 X64.055 Y175.271 E49.68716
G1 X62.12 Y176.715 E49.76747
G1 X59.99 Y177.69 E49.84538
G1 X57.643 Y178.192 E49.92521
G1 X55.283 Y178.189 E50.0037
G1 X52.942 Y177.663 E50.0835
G1 X50.783 Y176.653 E50.16278
G1 X48.823 Y175.151 E50.24491
G1 X47.322 Y173.36 E50.32263
G1 X46.217 Y171.226 E50.40256
G1 X45.608 Y169.019 E50.47871
G1 X45.477 Y166.587 E50.55972
G1 X45.868 Y164.256 E50.63833
G1 X46.771 Y162.008 E50.7189
G1 X48.047 Y160.116 E50.79481
G1 X46.74 Y160.117 E50.83828
G1 X45.036 Y159.698 E50.89664
G1 X43.213 Y158.752 E50.96495
G1 X41.909 Y157.356 E51.02849
G1 X40.823 Y155.536 E51.09898
G1 X40.565 Y153.966 E51.1519
G1 X40.5 Y100.557 E52.92829
G1 X40.919 Y98.853 E52.98665
G1 X41.865 Y97.03 E53.05496
G1 X43.261 Y95.726 E53.1185
G1 X45.081 Y94.64 E53.18899
G1 X46.651 Y94.382 E53.24191
G1 X58.696 Y94.356 E53.64253
G1 X51.283 Y90.076 E53.92723
G1 X50.034 Y88.864 E53.98512
G1 X48.911 Y87.073 E54.05543
G1 X48.5 Y85.166 E54.12031
G1 X48.5 Y69.213 E54.65091
G1 X48.937 Y67.473 E54.71058
G1 X49.959 Y65.572 E54.78237
G1 X51.349 Y64.321 E54.84456
G0 F6000 X51.587 Y64.645
G1 F1200 X65.336 Y56.708 E55.37258
G1 X66.993 Y56.232 E55.42993
G1 X68.944 Y56.148 E55.49488
G1 X70.652 Y56.701 E55.55459
G1 X84.472 Y64.678 E56.08532
G1 X85.652 Y65.823 E56.14001
G1 X86.713 Y67.515 E56.20643
G1 X87.1 Y69.31 E56.2675
G1 X87.1 Y85.171 E56.79504
G1 X86.686 Y86.818 E56.85153
G1 X85.723 Y88.61 E56.91919
G1 X84.413 Y89.789 E56.97781
G1 X75.829 Y94.746 E57.3075
G1 X188.214 Y94.717 E61.04544
G1 X189.821 Y95.112 E61.10048
G1 X191.542 Y96.005 E61.16497
G1 X192.77 Y97.32 E61.22481
G1 X193.794 Y99.036 E61.29127
G1 X194.04 Y100.533 E61.34173
G1 X194.1 Y153.831 E63.11443
G1 X193.705 Y155.438 E63.16947
G1 X192.812 Y157.159 E63.23396
G1 X191.497 Y158.387 E63.2938
G1 X189.781 Y159.411 E63.36027
G1 X188.284 Y159.657 E63.41072
G1 X63.948 Y159.712 E67.54616
G1 X64.67 Y160.399 E67.5793
G1 X65.919 Y162.275 E67.65426
G1 X66.75 Y164.381 E67.72957
G1 X67.126 Y166.648 E67.806
G1 X66.977 Y169.001 E67.88441
G1 X66.365 Y171.183 E67.95979
G1 X65.28 Y173.218 E68.03649
G1 X63.78 Y174.977 E68.11338
G1 X61.916 Y176.368 E68.19074
G1 X59.861 Y177.309 E68.26591
G1 X57.601 Y177.792 E68.34278
G1 X55.327 Y177.789 E68.41841
G1 X53.071 Y177.282 E68.49532
G1 X50.991 Y176.309 E68.57169
G1 X49.102 Y174.861 E68.65086
G1 X47.657 Y173.138 E68.72565
G1 X46.593 Y171.082 E68.80265
G1 X46.004 Y168.95 E68.87621
G1 X45.879 Y166.614 E68.95402
G1 X46.256 Y164.362 E69.02996
G1 X47.125 Y162.199 E69.1075
G1 X48.373 Y160.347 E69.18177
G1 X49.041 Y159.716 E69.21234
G1 X46.786 Y159.717 E69.28734
G1 X45.179 Y159.322 E69.34238
G1 X43.458 Y158.429 E69.40687
G1 X42.23 Y157.114 E69.46671
G1 X41.206 Y155.398 E69.53317
G1 X40.96 Y153.901 E69.58363
G1 X40.9 Y100.603 E71.35633
G1 X41.295 Y98.996 E71.41137
G1 X42.188 Y97.275 E71.47586
G1 X43.503 Y96.047 E71.5357
G1 X45.219 Y95.023 E71.60216
G1 X46.716 Y94.777 E71.65262
G1 X60.184 Y94.753 E72.10057
G1 X51.528 Y89.756 E72.433
G1 X50.348 Y88.611 E72.48769
G1 X49.287 Y86.919 E72.55411
G1 X48.9 Y85.124 E72.61519
G1 X48.9 Y69.263 E73.14272
G1 X49.314 Y67.616 E73.19921
G1 X50.277 Y65.824 E73.26687
G1 X51.587 Y64.645 E73.32549
G0 F6000 X51.825 Y64.969
G1 F1200 X65.493 Y57.079 E73.8504
G1 X67.055 Y56.63 E73.90445
G1 X68.889 Y56.551 E73.96551
G1 X70.492 Y57.07 E74.02155
G1 X84.227 Y64.998 E74.54902
G1 X85.34 Y66.078 E74.6006
G1 X86.337 Y67.668 E74.66302
G1 X86.7 Y69.352 E74.72031
G1 X86.7 Y85.122 E75.24483
G1 X86.31 Y86.674 E75.29805
G1 X85.405 Y88.358 E75.36164
G1 X84.175 Y89.465 E75.41668
G1 X74.336 Y95.146 E75.79456
G1 X188.168 Y95.117 E79.58062
G1 X189.678 Y95.488 E79.63234
G1 X191.297 Y96.328 E79.693
G1 X192.449 Y97.562 E79.74915
G1 X193.411 Y99.174 E79.81159
G1 X193.645 Y100.598 E79.85959
G1 X193.7 Y153.785 E81.62859
G1 X193.329 Y155.295 E81.68031
G1 X192.489 Y156.914 E81.74098
G1 X191.255 Y158.066 E81.79712
G1 X189.643 Y159.028 E81.85956
G1 X188.219 Y159.262 E81.90756
G1 X62.949 Y159.312 E86.07406
G1 X64.362 Y160.659 E86.13899
G1 X65.563 Y162.462 E86.21104
G1 X66.362 Y164.487 E86.28344
G1 X66.724 Y166.671 E86.35708
G1 X66.581 Y168.933 E86.43246
G1 X65.992 Y171.033 E86.505
G1 X64.948 Y172.991 E86.5788
G1 X63.503 Y174.685 E86.65286
G1 X61.714 Y176.021 E86.72712
G1 X59.734 Y176.927 E86.79955
G1 X57.559 Y177.392 E86.87352
G1 X55.371 Y177.389 E86.94629
G1 X53.2 Y176.901 E87.0203
G1 X51.199 Y175.965 E87.09378
G1 X49.383 Y174.573 E87.16988
G1 X47.991 Y172.913 E87.24194
G1 X46.968 Y170.937 E87.31594
G1 X46.401 Y168.882 E87.38685
G1 X46.28 Y166.636 E87.46166
G1 X46.643 Y164.472 E87.53464
G1 X47.479 Y162.39 E87.60926
G1 X48.681 Y160.607 E87.68078
G1 X50.048 Y159.316 E87.74332
G1 X46.832 Y159.317 E87.85028
G1 X45.322 Y158.946 E87.902
G1 X43.703 Y158.106 E87.96266
G1 X42.551 Y156.872 E88.01881
G1 X41.589 Y155.26 E88.08125
G1 X41.355 Y153.836 E88.12925
G1 X41.3 Y100.649 E89.89825
G1 X41.671 Y99.139 E89.94997
G1 X42.511 Y97.52 E90.01063
G1 X43.745 Y96.368 E90.06678
G1 X45.357 Y95.406 E90.12922
G1 X46.781 Y95.172 E90.17722
G1 X61.673 Y95.151 E90.67253
G1 X51.773 Y89.436 E91.05273
G1 X50.66 Y88.356 E91.10431
G1 X49.663 Y86.766 E91.16673
G1 X49.3 Y85.082 E91.22403
G1 X49.3 Y69.312 E91.74854
G1 X49.69 Y67.76 E91.80177
G1 X50.595 Y66.076 E91.86535
G1 X51.825 Y64.969 E91.92039
G0 F6000 X52.063 Y65.293
G1 F1200 X65.651 Y57.449 E92.44223
G1 X67.116 Y57.028 E92.49292
G1 X68.834 Y56.954 E92.55012
G1 X70.332 Y57.439 E92.60249
G1 X83.982 Y65.318 E93.12669
G1 X85.028 Y66.333 E93.17517
G1 X85.961 Y67.821 E93.23359
G1 X86.3 Y69.394 E93.2871
G1 X86.3 Y85.073 E93.80859
G1 X85.934 Y86.53 E93.85856
G1 X85.087 Y88.106 E93.91806
G1 X83.937 Y89.141 E93.96952
G1 X72.843 Y95.546 E94.39559
G1 X188.121 Y95.517 E98.22975
G1 X189.536 Y95.865 E98.27822
G1 X191.052 Y96.651 E98.33502
G1 X192.128 Y97.804 E98.38747
G1 X193.028 Y99.312 E98.44588
G1 X193.25 Y100.663 E98.49142
G1 X193.3 Y153.738 E100.2567
G1 X192.952 Y155.153 E100.30516
G1 X192.166 Y156.669 E100.36196
G1 X191.013 Y157.745 E100.41442
G1 X189.505 Y158.645 E100.47282
G1 X188.154 Y158.867 E100.51836
G1 X61.658 Y158.912 E104.72564
G1 X62.455 Y159.393 E104.7566
G1 X64.052 Y160.916 E104.83
G1 X65.207 Y162.649 E104.89926
G1 X65.973 Y164.592 E104.96873
G1 X66.322 Y166.694 E105.0396
G1 X66.185 Y168.865 E105.11195
G1 X65.619 Y170.883 E105.18166
G1 X64.616 Y172.764 E105.25256
G1 X63.228 Y174.391 E105.32369
G1 X61.508 Y175.675 E105.39508
G1 X59.607 Y176.545 E105.46462
G1 X57.517 Y176.992 E105.5357
G1 X55.415 Y176.989 E105.60561
G1 X53.329 Y176.52 E105.67673
G1 X51.407 Y175.621 E105.7473
G1 X49.664 Y174.285 E105.82034
G1 X48.325 Y172.688 E105.88966
G1 X47.344 Y170.793 E105.96063
G1 X46.797 Y168.813 E106.02895
G1 X46.682 Y166.663 E106.10057
G1 X47.031 Y164.578 E106.17088
G1 X47.834 Y162.579 E106.24253
G1 X48.988 Y160.866 E106.31123
G1 X50.577 Y159.367 E106.38388
G1 X51.336 Y158.916 E106.41325
G1 X46.879 Y158.917 E106.56149
G1 X45.464 Y158.569 E106.60995
G1 X43.948 Y157.783 E106.66675
G1 X42.872 Y156.63 E106.7192
G1 X41.972 Y155.122 E106.77761
G1 X41.75 Y153.771 E106.82315
G1 X41.7 Y100.696 E108.58843
G1 X42.048 Y99.281 E108.6369
G1 X42.834 Y97.765 E108.69369
G1 X43.987 Y96.689 E108.74615
G1 X45.495 Y95.789 E108.80456
G1 X46.846 Y95.567 E108.8501
G1 X63.163 Y95.549 E109.3928
G1 X52.018 Y89.116 E109.8208
G1 X50.972 Y88.101 E109.86928
G1 X50.039 Y86.613 E109.9277
G1 X49.7 Y85.04 E109.98122
G1 X49.7 Y69.361 E110.5027
G1 X50.066 Y67.904 E110.55267
G1 X50.913 Y66.328 E110.61218
G1 X52.063 Y65.293 E110.66363
G0 F6000 X52.301 Y65.617
G1 F1200 X65.809 Y57.819 E111.1824
G1 X67.177 Y57.426 E111.22974
G1 X68.779 Y57.357 E111.28307
G1 X70.172 Y57.808 E111.33177
G1 X83.737 Y65.638 E111.85271
G1 X84.714 Y66.586 E111.89799
G1 X85.585 Y67.975 E111.95252
G1 X85.9 Y69.436 E112.00223
G1 X85.9 Y85.024 E112.52069
G1 X85.558 Y86.386 E112.5674
G1 X84.769 Y87.854 E112.62283
G1 X83.699 Y88.817 E112.67071
G1 X71.35 Y95.946 E113.14497
G1 X188.075 Y95.917 E117.02726
G1 X189.393 Y96.241 E117.0724
G1 X190.807 Y96.974 E117.12537
G1 X191.807 Y98.046 E117.17413
G1 X192.645 Y99.45 E117.22851
G1 X192.855 Y100.728 E117.27159
G1 X192.9 Y153.692 E119.03318
G1 X192.576 Y155.01 E119.07832
G1 X191.843 Y156.424 E119.1313
G1 X190.771 Y157.424 E119.18006
G1 X189.367 Y158.262 E119.23444
G1 X188.089 Y158.472 E119.27751
G1 X60.036 Y158.513 E123.53657
G1 X60.453 Y158.654 E123.55122
G1 X62.211 Y159.714 E123.61949
G1 X63.744 Y161.175 E123.68993
G1 X64.851 Y162.836 E123.75632
G1 X65.585 Y164.698 E123.82289
G1 X65.92 Y166.717 E123.89096
G1 X65.789 Y168.797 E123.96028
G1 X65.246 Y170.733 E124.02715
G1 X64.284 Y172.537 E124.09515
G1 X62.953 Y174.097 E124.16336
G1 X61.302 Y175.329 E124.23187
G1 X59.48 Y176.163 E124.29852
G1 X57.475 Y176.592 E124.36671
G1 X55.459 Y176.589 E124.43377
G1 X53.458 Y176.139 E124.50198
G1 X51.615 Y175.277 E124.56966
G1 X49.945 Y173.997 E124.63964
G1 X48.659 Y172.463 E124.70622
G1 X47.719 Y170.648 E124.7742
G1 X47.194 Y168.745 E124.83986
G1 X47.083 Y166.685 E124.90847
G1 X47.418 Y164.688 E124.97582
G1 X48.188 Y162.77 E125.04456
G1 X49.297 Y161.124 E125.11058
G1 X50.818 Y159.689 E125.18013
G1 X52.592 Y158.634 E125.24877
G1 X52.951 Y158.515 E125.26135
G1 X46.925 Y158.517 E125.46178
G1 X45.607 Y158.193 E125.50692
G1 X44.193 Y157.46 E125.5599
G1 X43.193 Y156.388 E125.60865
G1 X42.355 Y154.984 E125.66304
G1 X42.145 Y153.706 E125.70611
G1 X42.1 Y100.742 E127.4677
G1 X42.424 Y99.424 E127.51285
G1 X43.157 Y98.01 E127.56582
G1 X44.229 Y97.01 E127.61458
G1 X45.633 Y96.172 E127.66896
G1 X46.911 Y95.962 E127.71204
G1 X64.653 Y95.948 E128.30214
G1 X52.263 Y88.796 E128.77796
G1 X51.286 Y87.848 E128.82324
G1 X50.415 Y86.459 E128.87777
G1 X50.1 Y84.998 E128.92748
G1 X50.1 Y69.41 E129.44594
G1 X50.442 Y68.048 E129.49264
G1 X51.231 Y66.58 E129.54808
G1 X52.301 Y65.617 E129.59596
G0 F6000 X52.539 Y65.941
G1 F1200 X65.966 Y58.19 E130.11161
G1 X67.239 Y57.824 E130.15566
G1 X68.724 Y57.76 E130.2051
G1 X70.012 Y58.177 E130.25013
G1 X83.492 Y65.958 E130.76781
G1 X84.402 Y66.841 E130.80998
G1 X85.209 Y68.128 E130.86051
G1 X85.5 Y69.478 E130.90644
G1 X85.5 Y84.974 E131.42184
G1 X85.181 Y86.243 E131.46536
G1 X84.451 Y87.602 E131.51667
G1 X83.461 Y88.493 E131.56097
G1 X70.034 Y96.244 E132.07662
G1 X69.679 Y96.346 E132.0889
G1 X188.029 Y96.317 E136.02524
